website/src/static/table/statusandactionsrow.svg

<svg width="144" height="80" viewBox="0 0 144 80" fill="none" xmlns="http://www.w3.org/2000/svg">
<mask id="path-1-inside-1_766_68064" fill="white">
<path d="M0 0H40V40H0V0Z"/>
</mask>
<path d="M0 0H40V40H0V0Z" fill="#F4F5F9"/>
<rect x="12" y="12" width="16" height="16" rx="4" fill="#008FF8"/>
<path d="M23.25 18L19 22.25L16.75 20" stroke="white" stroke-width="2" stroke-linecap="round" stroke-linejoin="round"/>
<path d="M40 39H0V41H40V39Z" fill="#E0E1E9" mask="url(#path-1-inside-1_766_68064)"/>
<mask id="path-5-inside-2_766_68064" fill="white">
<path d="M40 0H144V40H40V0Z"/>
</mask>
<path d="M40 0H144V40H40V0Z" fill="#F4F5F9"/>
<path d="M52.5284 16.4062V15.2727H59.2827V16.4062H56.5597V24H55.2472V16.4062H52.5284ZM60.7752 24V15.2727H62.092V19.0653H66.4428V15.2727H67.7638V24H66.4428V20.1946H62.092V24H60.7752Z" fill="#191B23"/>
<path d="M144 40V41H145V40H144ZM143 0V40H145V0H143ZM144 39H40V41H144V39Z" fill="#E0E1E9" mask="url(#path-5-inside-2_766_68064)"/>
<mask id="path-8-inside-3_766_68064" fill="white">
<path d="M0 40H144V80H0V40Z"/>
</mask>
<path d="M0 40H144V80H0V40Z" fill="#F4F5F9"/>
<path d="M14.1747 56.8182V67H12.6335V58.3594H12.5739L10.1378 59.9503V58.4787L12.6783 56.8182H14.1747ZM21.862 67.1392C21.1793 67.1392 20.5694 67.0215 20.0325 66.7862C19.4989 66.5509 19.0763 66.2244 18.7647 65.8068C18.4565 65.3859 18.2908 64.8987 18.2676 64.3452H19.8287C19.8485 64.6468 19.9496 64.9086 20.1319 65.1307C20.3175 65.3494 20.5595 65.5185 20.8578 65.6378C21.1561 65.7571 21.4875 65.8168 21.8521 65.8168C22.2531 65.8168 22.6078 65.7472 22.916 65.608C23.2276 65.4687 23.4712 65.2749 23.6468 65.0263C23.8225 64.7744 23.9103 64.4844 23.9103 64.1562C23.9103 63.8149 23.8225 63.5149 23.6468 63.2564C23.4745 62.9946 23.2209 62.7891 22.8862 62.6399C22.5547 62.4908 22.1537 62.4162 21.6831 62.4162H20.823V61.1634H21.6831C22.0609 61.1634 22.3923 61.0954 22.6774 60.9595C22.9657 60.8236 23.1911 60.6347 23.3535 60.3928C23.5159 60.1475 23.5971 59.8608 23.5971 59.5327C23.5971 59.2178 23.5259 58.9444 23.3833 58.7124C23.2441 58.477 23.0453 58.2931 22.7868 58.1605C22.5315 58.0279 22.2299 57.9616 21.8819 57.9616C21.5505 57.9616 21.2406 58.023 20.9522 58.1456C20.6672 58.2649 20.4352 58.4373 20.2562 58.6626C20.0772 58.8847 19.9811 59.1515 19.9679 59.4631H18.4814C18.4979 58.9129 18.6603 58.429 18.9686 58.0114C19.2801 57.5937 19.6911 57.2673 20.2015 57.032C20.7119 56.7966 21.2787 56.679 21.9018 56.679C22.5547 56.679 23.1182 56.8066 23.5922 57.0618C24.0694 57.3137 24.4373 57.6501 24.6958 58.071C24.9577 58.492 25.0869 58.9527 25.0836 59.4531C25.0869 60.0232 24.9279 60.5071 24.6064 60.9048C24.2882 61.3026 23.8639 61.5694 23.3336 61.7053V61.7848C24.0098 61.8875 24.5334 62.156 24.9047 62.5902C25.2792 63.0244 25.4648 63.563 25.4615 64.206C25.4648 64.7661 25.309 65.2682 24.9941 65.7124C24.6826 66.1565 24.2567 66.5062 23.7164 66.7614C23.1762 67.0133 22.5581 67.1392 21.862 67.1392ZM31.1614 67V59.3636H32.5982V60.5767H32.6777C32.8169 60.1657 33.0622 59.8426 33.4135 59.6072C33.7682 59.3686 34.1692 59.2493 34.6167 59.2493C34.7095 59.2493 34.8188 59.2526 34.9448 59.2592C35.074 59.2659 35.1751 59.2741 35.248 59.2841V60.706C35.1884 60.6894 35.0823 60.6712 34.9299 60.6513C34.7774 60.6281 34.6249 60.6165 34.4725 60.6165C34.1212 60.6165 33.8079 60.6911 33.5328 60.8402C33.2611 60.986 33.0456 61.1899 32.8865 61.4517C32.7275 61.7102 32.6479 62.0052 32.6479 62.3366V67H31.1614ZM39.4776 67.1541C38.7617 67.1541 38.137 66.9901 37.6033 66.6619C37.0697 66.3338 36.6554 65.8748 36.3604 65.2848C36.0655 64.6948 35.918 64.0054 35.918 63.2166C35.918 62.4245 36.0655 61.7318 36.3604 61.1385C36.6554 60.5452 37.0697 60.0845 37.6033 59.7564C38.137 59.4283 38.7617 59.2642 39.4776 59.2642C40.1935 59.2642 40.8183 59.4283 41.3519 59.7564C41.8855 60.0845 42.2998 60.5452 42.5948 61.1385C42.8898 61.7318 43.0373 62.4245 43.0373 63.2166C43.0373 64.0054 42.8898 64.6948 42.5948 65.2848C42.2998 65.8748 41.8855 66.3338 41.3519 66.6619C40.8183 66.9901 40.1935 67.1541 39.4776 67.1541ZM39.4826 65.9062C39.9466 65.9062 40.3311 65.7836 40.636 65.5384C40.9409 65.2931 41.1663 64.9666 41.3121 64.5589C41.4613 64.1513 41.5359 63.7022 41.5359 63.2116C41.5359 62.7244 41.4613 62.277 41.3121 61.8693C41.1663 61.4583 40.9409 61.1286 40.636 60.88C40.3311 60.6314 39.9466 60.5071 39.4826 60.5071C39.0153 60.5071 38.6275 60.6314 38.3192 60.88C38.0143 61.1286 37.7873 61.4583 37.6381 61.8693C37.4923 62.277 37.4194 62.7244 37.4194 63.2116C37.4194 63.7022 37.4923 64.1513 37.6381 64.5589C37.7873 64.9666 38.0143 65.2931 38.3192 65.5384C38.6275 65.7836 39.0153 65.9062 39.4826 65.9062ZM46.1197 67L43.8725 59.3636H45.4087L46.9052 64.9716H46.9798L48.4812 59.3636H50.0174L51.5089 64.9467H51.5835L53.07 59.3636H54.6062L52.364 67H50.8477L49.2965 61.4865H49.1822L47.631 67H46.1197ZM61.7392 61.228L60.3919 61.4666C60.3355 61.2943 60.246 61.1302 60.1234 60.9744C60.0041 60.8187 59.8417 60.6911 59.6362 60.5916C59.4307 60.4922 59.1738 60.4425 58.8656 60.4425C58.4447 60.4425 58.0933 60.5369 57.8116 60.7259C57.5299 60.9115 57.389 61.1518 57.389 61.4467C57.389 61.7019 57.4835 61.9074 57.6724 62.0632C57.8613 62.219 58.1663 62.3466 58.5872 62.446L59.8002 62.7244C60.5029 62.8868 61.0266 63.1371 61.3713 63.4751C61.716 63.8132 61.8883 64.2524 61.8883 64.7926C61.8883 65.25 61.7557 65.6577 61.4906 66.0156C61.2288 66.3703 60.8625 66.6487 60.3919 66.8509C59.9245 67.053 59.3826 67.1541 58.7662 67.1541C57.911 67.1541 57.2134 66.9718 56.6731 66.6072C56.1329 66.2393 55.8014 65.7173 55.6788 65.0412L57.1156 64.8224C57.2051 65.197 57.389 65.4804 57.6674 65.6726C57.9458 65.8615 58.3088 65.956 58.7562 65.956C59.2434 65.956 59.6329 65.8549 59.9245 65.6527C60.2162 65.4472 60.362 65.197 60.362 64.902C60.362 64.6634 60.2725 64.4628 60.0936 64.3004C59.9179 64.138 59.6478 64.0154 59.2832 63.9325L57.9906 63.6491C57.278 63.4867 56.751 63.2282 56.4096 62.8736C56.0716 62.5189 55.9025 62.0698 55.9025 61.5263C55.9025 61.0755 56.0285 60.6811 56.2804 60.343C56.5323 60.005 56.8803 59.7415 57.3244 59.5526C57.7685 59.3603 58.2773 59.2642 58.8507 59.2642C59.676 59.2642 60.3256 59.4432 60.7995 59.8011C61.2735 60.1558 61.5867 60.6314 61.7392 61.228ZM72.9501 61.228L71.6028 61.4666C71.5465 61.2943 71.457 61.1302 71.3343 60.9744C71.215 60.8187 71.0526 60.6911 70.8471 60.5916C70.6416 60.4922 70.3848 60.4425 70.0765 60.4425C69.6556 60.4425 69.3043 60.5369 69.0225 60.7259C68.7408 60.9115 68.6 61.1518 68.6 61.4467C68.6 61.7019 68.6944 61.9074 68.8833 62.0632C69.0723 62.219 69.3772 62.3466 69.7981 62.446L71.0112 62.7244C71.7138 62.8868 72.2375 63.1371 72.5822 63.4751C72.9269 63.8132 73.0993 64.2524 73.0993 64.7926C73.0993 65.25 72.9667 65.6577 72.7015 66.0156C72.4397 66.3703 72.0734 66.6487 71.6028 66.8509C71.1355 67.053 70.5936 67.1541 69.9771 67.1541C69.122 67.1541 68.4243 66.9718 67.8841 66.6072C67.3438 66.2393 67.0124 65.7173 66.8897 65.0412L68.3265 64.8224C68.416 65.197 68.6 65.4804 68.8784 65.6726C69.1568 65.8615 69.5197 65.956 69.9672 65.956C70.4544 65.956 70.8438 65.8549 71.1355 65.6527C71.4271 65.4472 71.573 65.197 71.573 64.902C71.573 64.6634 71.4835 64.4628 71.3045 64.3004C71.1288 64.138 70.8587 64.0154 70.4941 63.9325L69.2015 63.6491C68.4889 63.4867 67.9619 63.2282 67.6206 62.8736C67.2825 62.5189 67.1135 62.0698 67.1135 61.5263C67.1135 61.0755 67.2394 60.6811 67.4913 60.343C67.7432 60.005 68.0912 59.7415 68.5353 59.5526C68.9795 59.3603 69.4882 59.2642 70.0616 59.2642C70.8869 59.2642 71.5365 59.4432 72.0105 59.8011C72.4844 60.1558 72.7976 60.6314 72.9501 61.228ZM78.0249 67.1541C77.2725 67.1541 76.6245 66.9934 76.081 66.6719C75.5407 66.3471 75.1231 65.8913 74.8281 65.3047C74.5365 64.7147 74.3906 64.0237 74.3906 63.2315C74.3906 62.4493 74.5365 61.7599 74.8281 61.1634C75.1231 60.5668 75.5341 60.1011 76.0611 59.7663C76.5914 59.4316 77.2112 59.2642 77.9205 59.2642C78.3513 59.2642 78.7689 59.3355 79.1733 59.478C79.5777 59.6205 79.9406 59.8442 80.2621 60.1491C80.5836 60.4541 80.8371 60.8501 81.0227 61.3374C81.2083 61.8213 81.3011 62.4096 81.3011 63.1023V63.6293H75.2308V62.5156H79.8445C79.8445 62.1245 79.7649 61.7782 79.6058 61.4766C79.4467 61.1716 79.223 60.9313 78.9347 60.7557C78.6496 60.58 78.3149 60.4922 77.9304 60.4922C77.5128 60.4922 77.1482 60.5949 76.8366 60.8004C76.5284 61.0026 76.2898 61.2678 76.1207 61.5959C75.955 61.9207 75.8722 62.2737 75.8722 62.6548V63.5249C75.8722 64.0353 75.9616 64.4695 76.1406 64.8274C76.3229 65.1854 76.5765 65.4588 76.9013 65.6477C77.2261 65.8333 77.6056 65.9261 78.0398 65.9261C78.3215 65.9261 78.5784 65.8864 78.8104 65.8068C79.0424 65.724 79.2429 65.6013 79.4119 65.4389C79.581 65.2765 79.7102 65.076 79.7997 64.8374L81.2067 65.0909C81.094 65.5052 80.8918 65.8681 80.6001 66.1797C80.3118 66.4879 79.9489 66.7282 79.5114 66.9006C79.0772 67.0696 78.5817 67.1541 78.0249 67.1541ZM84.437 56.8182V67H82.9505V56.8182H84.437ZM89.728 67.1541C88.9756 67.1541 88.3277 66.9934 87.7841 66.6719C87.2438 66.3471 86.8262 65.8913 86.5312 65.3047C86.2396 64.7147 86.0938 64.0237 86.0938 63.2315C86.0938 62.4493 86.2396 61.7599 86.5312 61.1634C86.8262 60.5668 87.2372 60.1011 87.7642 59.7663C88.2945 59.4316 88.9143 59.2642 89.6236 59.2642C90.0545 59.2642 90.4721 59.3355 90.8764 59.478C91.2808 59.6205 91.6437 59.8442 91.9652 60.1491C92.2867 60.4541 92.5402 60.8501 92.7259 61.3374C92.9115 61.8213 93.0043 62.4096 93.0043 63.1023V63.6293H86.9339V62.5156H91.5476C91.5476 62.1245 91.468 61.7782 91.3089 61.4766C91.1499 61.1716 90.9261 60.9313 90.6378 60.7557C90.3527 60.58 90.018 60.4922 89.6335 60.4922C89.2159 60.4922 88.8513 60.5949 88.5398 60.8004C88.2315 61.0026 87.9929 61.2678 87.8239 61.5959C87.6581 61.9207 87.5753 62.2737 87.5753 62.6548V63.5249C87.5753 64.0353 87.6648 64.4695 87.8438 64.8274C88.026 65.1854 88.2796 65.4588 88.6044 65.6477C88.9292 65.8333 89.3087 65.9261 89.7429 65.9261C90.0246 65.9261 90.2815 65.8864 90.5135 65.8068C90.7455 65.724 90.946 65.6013 91.1151 65.4389C91.2841 65.2765 91.4134 65.076 91.5028 64.8374L92.9098 65.0909C92.7971 65.5052 92.5949 65.8681 92.3033 66.1797C92.0149 66.4879 91.652 66.7282 91.2145 66.9006C90.7803 67.0696 90.2848 67.1541 89.728 67.1541ZM97.8702 67.1541C97.1311 67.1541 96.4947 66.9867 95.9611 66.652C95.4308 66.3139 95.0231 65.8482 94.7381 65.255C94.4531 64.6617 94.3105 63.9822 94.3105 63.2166C94.3105 62.4411 94.4564 61.7566 94.748 61.1634C95.0397 60.5668 95.4507 60.1011 95.981 59.7663C96.5113 59.4316 97.1361 59.2642 97.8553 59.2642C98.4353 59.2642 98.9524 59.3719 99.4064 59.5874C99.8605 59.7995 100.227 60.0978 100.505 60.4822C100.787 60.8667 100.954 61.3158 101.007 61.8295H99.5605C99.481 61.4716 99.2987 61.1634 99.0137 60.9048C98.7319 60.6463 98.3541 60.517 97.8801 60.517C97.4659 60.517 97.1029 60.6264 96.7914 60.8452C96.4831 61.0606 96.2428 61.3688 96.0705 61.7699C95.8981 62.1676 95.812 62.6383 95.812 63.1818C95.812 63.7386 95.8965 64.2192 96.0655 64.6236C96.2346 65.0279 96.4732 65.3411 96.7814 65.5632C97.093 65.7853 97.4592 65.8963 97.8801 65.8963C98.1619 65.8963 98.4171 65.8449 98.6458 65.7422C98.8778 65.6361 99.0717 65.4853 99.2275 65.2898C99.3865 65.0942 99.4976 64.8589 99.5605 64.5838H101.007C100.954 65.0777 100.794 65.5185 100.525 65.9062C100.257 66.294 99.897 66.599 99.4462 66.821C98.9988 67.0431 98.4734 67.1541 97.8702 67.1541ZM106.162 59.3636V60.5568H101.99V59.3636H106.162ZM103.109 57.5341H104.596V64.7578C104.596 65.0462 104.639 65.2633 104.725 65.4091C104.811 65.5516 104.922 65.6494 105.058 65.7024C105.197 65.7521 105.348 65.777 105.51 65.777C105.63 65.777 105.734 65.7687 105.824 65.7521C105.913 65.7356 105.983 65.7223 106.032 65.7124L106.301 66.9403C106.215 66.9735 106.092 67.0066 105.933 67.0398C105.774 67.0762 105.575 67.0961 105.336 67.0994C104.945 67.1061 104.581 67.0365 104.243 66.8906C103.904 66.7448 103.631 66.5194 103.422 66.2145C103.213 65.9096 103.109 65.5268 103.109 65.0661V57.5341ZM111.015 67.1541C110.263 67.1541 109.615 66.9934 109.071 66.6719C108.531 66.3471 108.113 65.8913 107.818 65.3047C107.527 64.7147 107.381 64.0237 107.381 63.2315C107.381 62.4493 107.527 61.7599 107.818 61.1634C108.113 60.5668 108.524 60.1011 109.051 59.7663C109.582 59.4316 110.201 59.2642 110.911 59.2642C111.342 59.2642 111.759 59.3355 112.164 59.478C112.568 59.6205 112.931 59.8442 113.252 60.1491C113.574 60.4541 113.827 60.8501 114.013 61.3374C114.199 61.8213 114.291 62.4096 114.291 63.1023V63.6293H108.221V62.5156H112.835C112.835 62.1245 112.755 61.7782 112.596 61.4766C112.437 61.1716 112.213 60.9313 111.925 60.7557C111.64 60.58 111.305 60.4922 110.921 60.4922C110.503 60.4922 110.138 60.5949 109.827 60.8004C109.519 61.0026 109.28 61.2678 109.111 61.5959C108.945 61.9207 108.862 62.2737 108.862 62.6548V63.5249C108.862 64.0353 108.952 64.4695 109.131 64.8274C109.313 65.1854 109.567 65.4588 109.892 65.6477C110.216 65.8333 110.596 65.9261 111.03 65.9261C111.312 65.9261 111.569 65.8864 111.801 65.8068C112.033 65.724 112.233 65.6013 112.402 65.4389C112.571 65.2765 112.7 65.076 112.79 64.8374L114.197 65.0909C114.084 65.5052 113.882 65.8681 113.59 66.1797C113.302 66.4879 112.939 66.7282 112.502 66.9006C112.067 67.0696 111.572 67.1541 111.015 67.1541ZM118.799 67.1491C118.183 67.1491 117.633 66.9917 117.149 66.6768C116.668 66.3587 116.29 65.9062 116.015 65.3196C115.743 64.7296 115.608 64.022 115.608 63.1967C115.608 62.3714 115.745 61.6655 116.02 61.0788C116.299 60.4922 116.68 60.0431 117.164 59.7315C117.648 59.42 118.196 59.2642 118.809 59.2642C119.283 59.2642 119.664 59.3438 119.953 59.5028C120.244 59.6586 120.47 59.8409 120.629 60.0497C120.791 60.2585 120.917 60.4425 121.007 60.6016H121.096V56.8182H122.583V67H121.131V65.8118H121.007C120.917 65.9742 120.788 66.1598 120.619 66.3686C120.453 66.5774 120.225 66.7597 119.933 66.9155C119.641 67.0713 119.263 67.1491 118.799 67.1491ZM119.127 65.8814C119.555 65.8814 119.916 65.7687 120.211 65.5433C120.51 65.3146 120.735 64.9981 120.887 64.5938C121.043 64.1894 121.121 63.7187 121.121 63.1818C121.121 62.6515 121.045 62.1875 120.892 61.7898C120.74 61.392 120.516 61.0821 120.221 60.8601C119.926 60.638 119.562 60.527 119.127 60.527C118.68 60.527 118.307 60.643 118.009 60.875C117.711 61.107 117.485 61.4235 117.333 61.8246C117.184 62.2256 117.109 62.678 117.109 63.1818C117.109 63.6922 117.185 64.1513 117.338 64.5589C117.49 64.9666 117.716 65.2898 118.014 65.5284C118.315 65.7637 118.687 65.8814 119.127 65.8814Z" fill="#191B23"/>
<path d="M144 79H0V81H144V79Z" fill="#E0E1E9" mask="url(#path-8-inside-3_766_68064)"/>
</svg>

<svg xmlns="http://www.w3.org/2000/svg" width="144" height="80" fill="none"><mask id="a" fill="#fff"><path d="M0 0h40v40H0V0Z"/></mask><path fill="#F4F5F9" d="M0 0h40v40H0V0Z"/><rect width="16" height="16" x="12" y="12" fill="#008FF8" rx="4"/><path stroke="#fff" stroke-linecap="round" stroke-linejoin="round" stroke-width="2" d="M23.25 18 19 22.25 16.75 20"/><path fill="#E0E1E9" d="M40 39H0v2h40v-2Z" mask="url(#a)"/><mask id="b" fill="#fff"><path d="M40 0h104v40H40V0Z"/></mask><path fill="#F4F5F9" d="M40 0h104v40H40V0Z"/><path fill="#191B23" d="M52.528 16.406v-1.133h6.755v1.133H56.56V24h-1.313v-7.594h-2.719ZM60.775 24v-8.727h1.317v3.792h4.35v-3.792h1.322V24h-1.321v-3.805h-4.351V24h-1.317Z"/><path fill="#E0E1E9" d="M144 40v1h1v-1h-1Zm-1-40v40h2V0h-2Zm1 39H40v2h104v-2Z" mask="url(#b)"/><mask id="c" fill="#fff"><path d="M0 40h144v40H0V40Z"/></mask><path fill="#F4F5F9" d="M0 40h144v40H0V40Z"/><path fill="#191B23" d="M14.175 56.818V67h-1.542v-8.64h-.06l-2.435 1.59V58.48l2.54-1.66h1.497Zm7.687 10.321c-.683 0-1.293-.117-1.83-.353-.533-.235-.956-.562-1.267-.98a2.6 2.6 0 0 1-.497-1.46h1.56c.02.3.122.563.304.785.185.218.427.388.726.507.298.12.63.179.994.179.401 0 .756-.07 1.064-.209.312-.14.555-.333.73-.582.177-.252.264-.542.264-.87 0-.341-.087-.641-.263-.9-.172-.261-.426-.467-.76-.616-.332-.15-.733-.224-1.204-.224h-.86v-1.253h.86c.378 0 .71-.068.994-.203a1.63 1.63 0 0 0 .677-.567c.162-.245.243-.532.243-.86 0-.315-.071-.589-.214-.82a1.436 1.436 0 0 0-.596-.553 1.938 1.938 0 0 0-.905-.198c-.332 0-.641.061-.93.184-.285.119-.517.291-.696.517a1.33 1.33 0 0 0-.288.8H18.48a2.51 2.51 0 0 1 .488-1.452 3.15 3.15 0 0 1 1.232-.979 4.012 4.012 0 0 1 1.7-.353c.654 0 1.217.128 1.691.383.477.252.845.588 1.104 1.009.262.421.39.882.388 1.382.003.57-.156 1.054-.478 1.452a2.314 2.314 0 0 1-1.272.8v.08c.676.103 1.2.371 1.57.805.375.434.56.973.558 1.616a2.515 2.515 0 0 1-.468 1.506 3.181 3.181 0 0 1-1.278 1.05c-.54.251-1.158.377-1.854.377Zm9.3-.139v-7.636h1.436v1.213h.08c.139-.411.384-.734.736-.97a2.106 2.106 0 0 1 1.203-.358 6.382 6.382 0 0 1 .631.035v1.422a2.66 2.66 0 0 0-.318-.055 3.037 3.037 0 0 0-.458-.035 1.94 1.94 0 0 0-.94.224 1.663 1.663 0 0 0-.884 1.497V67H31.16Zm8.316.154c-.716 0-1.341-.164-1.875-.492a3.319 3.319 0 0 1-1.243-1.377c-.294-.59-.442-1.28-.442-2.068 0-.792.148-1.485.442-2.078a3.312 3.312 0 0 1 1.243-1.383c.534-.328 1.159-.492 1.875-.492.715 0 1.34.164 1.874.492.534.328.948.79 1.243 1.383.295.593.442 1.285.442 2.078 0 .788-.147 1.478-.442 2.068a3.319 3.319 0 0 1-1.243 1.377c-.534.328-1.158.492-1.874.492Zm.005-1.248c.464 0 .848-.122 1.153-.368.305-.245.53-.571.676-.98.15-.407.224-.856.224-1.346 0-.488-.075-.935-.224-1.343a2.187 2.187 0 0 0-.676-.989c-.305-.249-.69-.373-1.153-.373-.468 0-.855.124-1.164.373a2.222 2.222 0 0 0-.68.99 3.96 3.96 0 0 0-.22 1.342c0 .49.073.94.22 1.347.148.408.375.734.68.98.308.245.696.367 1.164.367ZM46.12 67l-2.247-7.636h1.536l1.496 5.608h.075l1.501-5.608h1.536l1.492 5.583h.075l1.486-5.583h1.536L52.364 67h-1.516l-1.551-5.514h-.115L47.631 67H46.12Zm15.62-5.772-1.348.239a1.599 1.599 0 0 0-.269-.493 1.33 1.33 0 0 0-.487-.382c-.205-.1-.462-.15-.77-.15-.421 0-.773.095-1.054.284-.282.185-.423.426-.423.72 0 .256.094.461.283.617.19.156.494.284.915.383l1.213.278c.703.163 1.227.413 1.571.751.345.338.517.777.517 1.318 0 .457-.132.865-.397 1.223-.262.354-.629.633-1.1.835-.466.202-1.008.303-1.625.303-.855 0-1.553-.182-2.093-.547-.54-.368-.872-.89-.994-1.566l1.437-.219c.09.375.273.658.551.85.279.19.642.284 1.09.284.486 0 .876-.101 1.168-.303.291-.206.437-.456.437-.751a.78.78 0 0 0-.268-.602c-.176-.162-.446-.285-.81-.367l-1.293-.284c-.713-.162-1.24-.42-1.581-.775-.338-.355-.507-.804-.507-1.348 0-.45.126-.845.377-1.183.252-.338.6-.602 1.044-.79.445-.193.953-.289 1.527-.289.825 0 1.475.18 1.949.537.474.355.787.83.94 1.427Zm11.21 0-1.347.239a1.595 1.595 0 0 0-.269-.493 1.33 1.33 0 0 0-.487-.382c-.205-.1-.462-.15-.77-.15-.421 0-.773.095-1.055.284-.281.185-.422.426-.422.72 0 .256.094.461.283.617.19.156.494.284.915.383l1.213.278c.703.163 1.227.413 1.571.751.345.338.517.777.517 1.318 0 .457-.132.865-.398 1.223-.261.354-.628.633-1.098.835-.468.202-1.01.303-1.626.303-.855 0-1.553-.182-2.093-.547-.54-.368-.872-.89-.994-1.566l1.436-.219c.09.375.274.658.552.85.279.19.642.284 1.09.284.486 0 .876-.101 1.167-.303.292-.206.438-.456.438-.751a.78.78 0 0 0-.268-.602c-.176-.162-.446-.285-.81-.367l-1.294-.284c-.712-.162-1.24-.42-1.58-.775-.338-.355-.507-.804-.507-1.348 0-.45.125-.845.377-1.183.252-.338.6-.602 1.044-.79.445-.193.953-.289 1.527-.289.825 0 1.475.18 1.948.537.474.355.788.83.94 1.427Zm5.075 5.926c-.753 0-1.4-.16-1.944-.482a3.271 3.271 0 0 1-1.253-1.367c-.291-.59-.437-1.281-.437-2.074 0-.782.145-1.471.437-2.068a3.398 3.398 0 0 1 1.233-1.397c.53-.334 1.15-.502 1.86-.502.43 0 .848.072 1.252.214.405.142.768.366 1.09.671.32.305.574.701.76 1.188.185.484.278 1.073.278 1.765v.527h-6.07v-1.113h4.614c0-.392-.08-.738-.24-1.04a1.804 1.804 0 0 0-.67-.72 1.875 1.875 0 0 0-1.005-.264 1.94 1.94 0 0 0-1.093.308 2.07 2.07 0 0 0-.716.796 2.296 2.296 0 0 0-.249 1.059v.87c0 .51.09.944.269 1.302.182.358.435.632.76.82.325.186.705.28 1.139.28.281 0 .538-.04.77-.12a1.598 1.598 0 0 0 .99-.97l1.407.254a2.548 2.548 0 0 1-.607 1.089 2.94 2.94 0 0 1-1.089.72c-.434.17-.93.254-1.486.254Zm6.412-10.336V67h-1.486V56.818h1.486Zm5.291 10.336c-.752 0-1.4-.16-1.944-.482a3.271 3.271 0 0 1-1.253-1.367c-.291-.59-.437-1.281-.437-2.074 0-.782.146-1.471.437-2.068a3.398 3.398 0 0 1 1.233-1.397c.53-.334 1.15-.502 1.86-.502.43 0 .848.072 1.252.214.405.142.768.366 1.09.671.32.305.574.701.76 1.188.186.484.278 1.073.278 1.765v.527h-6.07v-1.113h4.614c0-.392-.08-.738-.24-1.04a1.803 1.803 0 0 0-.67-.72 1.875 1.875 0 0 0-1.005-.264 1.94 1.94 0 0 0-1.093.308 2.068 2.068 0 0 0-.716.796 2.295 2.295 0 0 0-.249 1.059v.87c0 .51.09.944.269 1.302.182.358.436.632.76.82.325.186.705.28 1.139.28.282 0 .538-.04.77-.12a1.597 1.597 0 0 0 .99-.97l1.407.254a2.549 2.549 0 0 1-.607 1.089 2.941 2.941 0 0 1-1.088.72c-.435.17-.93.254-1.487.254Zm8.142 0c-.739 0-1.375-.167-1.909-.502a3.325 3.325 0 0 1-1.223-1.397c-.285-.593-.427-1.273-.427-2.038 0-.776.145-1.46.437-2.054a3.352 3.352 0 0 1 1.233-1.397c.53-.334 1.155-.502 1.874-.502.58 0 1.097.108 1.551.323.454.212.821.51 1.099.895a2.7 2.7 0 0 1 .502 1.348H99.56a1.734 1.734 0 0 0-.546-.925c-.282-.259-.66-.388-1.134-.388-.414 0-.777.11-1.089.328-.308.216-.548.524-.72.925-.173.398-.259.868-.259 1.412 0 .557.085 1.037.254 1.442.169.404.407.717.715.94.312.221.678.332 1.1.332.28 0 .536-.051.765-.154.232-.106.426-.257.582-.452.159-.196.27-.431.333-.706h1.446a2.804 2.804 0 0 1-.482 1.322 2.77 2.77 0 0 1-1.079.915c-.447.222-.973.333-1.576.333Zm8.292-7.79v1.193h-4.172v-1.193h4.172Zm-3.053-1.83h1.487v7.224c0 .288.043.505.129.651.086.143.197.24.333.293.139.05.29.075.452.075.12 0 .224-.008.314-.025.089-.016.159-.03.208-.04l.269 1.228a2.497 2.497 0 0 1-.368.1 2.916 2.916 0 0 1-.597.06 2.612 2.612 0 0 1-1.093-.21 1.874 1.874 0 0 1-.821-.675c-.209-.305-.313-.688-.313-1.149v-7.532Zm7.906 9.62c-.752 0-1.4-.16-1.944-.482a3.273 3.273 0 0 1-1.253-1.367c-.291-.59-.437-1.281-.437-2.074 0-.782.146-1.471.437-2.068a3.398 3.398 0 0 1 1.233-1.397c.531-.334 1.15-.502 1.86-.502.431 0 .848.072 1.253.214a3.03 3.03 0 0 1 1.088.671c.322.305.575.701.761 1.188.186.484.278 1.073.278 1.765v.527h-6.07v-1.113h4.614c0-.392-.08-.738-.239-1.04a1.805 1.805 0 0 0-.671-.72 1.875 1.875 0 0 0-1.004-.264 1.94 1.94 0 0 0-1.094.308 2.071 2.071 0 0 0-.716.796 2.293 2.293 0 0 0-.249 1.059v.87c0 .51.09.944.269 1.302.182.358.436.632.761.82.324.186.704.28 1.138.28.282 0 .539-.04.771-.12.232-.083.432-.206.601-.368.169-.162.298-.363.388-.602l1.407.254a2.549 2.549 0 0 1-.607 1.089 2.939 2.939 0 0 1-1.088.72c-.435.17-.93.254-1.487.254Zm7.784-.005a2.958 2.958 0 0 1-1.65-.472c-.481-.318-.859-.77-1.134-1.357-.272-.59-.407-1.298-.407-2.123 0-.826.137-1.532.412-2.118.279-.587.66-1.036 1.144-1.348a2.973 2.973 0 0 1 1.645-.467c.474 0 .855.08 1.144.239.291.156.517.338.676.547.162.209.288.393.378.552h.089v-3.784h1.487V67h-1.452v-1.188h-.124c-.09.162-.219.348-.388.557a2.154 2.154 0 0 1-.686.546c-.292.156-.67.234-1.134.234Zm.328-1.268c.428 0 .789-.112 1.084-.338.299-.228.524-.545.676-.95.156-.404.234-.874.234-1.411 0-.53-.076-.995-.229-1.392-.152-.398-.376-.708-.671-.93-.295-.222-.659-.333-1.094-.333-.447 0-.82.116-1.118.348a2.125 2.125 0 0 0-.676.95 3.876 3.876 0 0 0-.224 1.357c0 .51.076.97.229 1.377.152.408.378.73.676.97.301.235.673.352 1.113.352Z"/><path fill="#E0E1E9" d="M144 79H0v2h144v-2Z" mask="url(#c)"/></svg>
